packages/foundations/assets/icons/functional/images/social/face_disappointed_12.svg

<svg width="12" height="12" viewBox="0 0 12 12" fill="none" xmlns="http://www.w3.org/2000/svg">
<g clip-path="url(#clip0_232_439)">
<path fill-rule="evenodd" clip-rule="evenodd" d="M8.99999 6C8.99999 7.6542 7.65419 9 5.99999 9C4.34579 9 2.99999 7.6542 2.99999 6C2.99999 4.3458 4.34579 3 5.99999 3C7.65419 3 8.99999 4.3458 8.99999 6ZM1.79999 6C1.79999 8.3196 3.68039 10.2 5.99999 10.2C8.31959 10.2 10.2 8.3196 10.2 6C10.2 3.6804 8.31959 1.8 5.99999 1.8C3.68039 1.8 1.79999 3.6804 1.79999 6ZM5.68079 5.2962C5.83559 5.0124 5.73119 4.6668 5.45279 4.5024C5.17379 4.3368 4.80959 4.4346 4.63559 4.707C4.62299 4.7268 4.55219 4.8276 4.42259 4.8312C4.09139 4.8414 3.83099 5.118 3.84059 5.4492C3.85019 5.7738 4.11659 6.0312 4.43999 6.0312H4.45799C5.27039 6.0066 5.64119 5.3688 5.68079 5.2962ZM7.57739 4.8312C7.45139 4.8276 7.38119 4.7328 7.36499 4.7088C7.20239 4.4286 6.84479 4.3254 6.55799 4.4826C6.26699 4.6416 6.15959 5.0058 6.31859 5.2962C6.35819 5.3688 6.72899 6.0066 7.54139 6.0312H7.55939C7.88279 6.0312 8.14919 5.7738 8.15879 5.4492C8.16959 5.1174 7.90919 4.8408 7.57739 4.8312ZM7.42439 7.1508C7.33079 6.7716 6.91139 6.054 5.99819 6.054C5.09159 6.054 4.65899 6.765 4.55699 7.1406C4.50479 7.332 4.57979 7.5336 4.73999 7.6512C4.90079 7.7694 5.11979 7.7736 5.28719 7.6656C5.29739 7.659 5.54579 7.503 5.98979 7.503C6.42539 7.503 6.67319 7.6536 6.69119 7.6656C6.77219 7.7202 6.86579 7.7472 6.95879 7.7472C7.05419 7.7472 7.14899 7.719 7.23119 7.6626C7.39499 7.5486 7.47239 7.3452 7.42439 7.1508Z" fill="#1A1C1F"/>
</g>
<defs>
<clipPath id="clip0_232_439">
<rect width="12" height="12" fill="white"/>
</clipPath>
</defs>
</svg>

<svg xmlns="http://www.w3.org/2000/svg" width="12" height="12" fill="none"><g clip-path="url(#a)"><path fill="#1A1C1F" fill-rule="evenodd" d="M9 6c0 1.654-1.346 3-3 3S3 7.654 3 6s1.346-3 3-3 3 1.346 3 3M1.8 6a4.2 4.2 0 1 0 8.4 0 4.2 4.2 0 0 0-8.4 0m3.88-.704a.59.59 0 0 0-.227-.794.61.61 0 0 0-.817.205.27.27 0 0 1-.213.124.6.6 0 0 0 .017 1.2h.018c.812-.024 1.183-.662 1.223-.735m1.897-.465a.27.27 0 0 1-.212-.122.6.6 0 0 0-1.046.587c.04.073.41.71 1.222.735h.018a.6.6 0 0 0 .018-1.2m-.153 2.32c-.093-.38-.513-1.097-1.426-1.097-.906 0-1.339.711-1.441 1.087a.484.484 0 0 0 .73.525c.01-.007.259-.163.703-.163.435 0 .683.15.701.163a.479.479 0 0 0 .733-.515" clip-rule="evenodd"/></g><defs><clipPath id="a"><path fill="#fff" d="M0 0h12v12H0z"/></clipPath></defs></svg>
